<?xml version="1.0" encoding="UTF-8"?>
<map version="1.10" tiledversion="1.12.2" orientation="isometric" renderorder="right-down" compressionlevel="0" width="15" height="14" tilewidth="64" tileheight="32" infinite="0" nextlayerid="7" nextobjectid="65">
 <properties>
  <property name="Background Animation" value="/server/assets/tournament_bg.animation"/>
  <property name="Background Texture" value="/server/assets/tournament_bg.png"/>
  <property name="Name" value="PrivateLobby"/>
 </properties>
 <tileset firstgid="1" source="../assets/tiles/battle_arena.tsx"/>
 <tileset firstgid="10" source="../assets/tiles/green_platform.tsx"/>
 <tileset firstgid="34" source="../assets/tiles/connector.tsx"/>
 <layer id="3" name="Layer 0" width="15" height="14">
  <data encoding="csv">
0,0,0,0,0,0,0,0,0,0,0,0,0,0,0,
0,0,0,0,0,0,0,0,0,0,0,0,0,0,0,
0,0,0,0,0,0,0,0,0,0,0,0,0,0,0,
0,0,0,0,0,0,0,0,0,0,0,0,0,0,0,
0,0,0,0,0,0,0,0,0,0,0,0,0,0,0,
0,0,0,0,0,0,0,0,0,0,0,0,0,0,0,
0,0,0,0,0,0,0,0,0,0,0,0,0,0,0,
0,0,0,0,0,0,0,1,2,3,0,0,0,0,0,
0,0,0,0,0,0,0,7,8,9,0,0,0,0,0,
0,0,0,0,0,0,0,35,37,39,0,0,0,0,0,
0,0,0,0,0,0,0,0,0,0,0,0,0,0,0,
0,0,0,0,0,0,0,0,0,0,0,0,0,0,0,
0,0,0,0,0,0,0,0,0,0,0,0,0,0,0,
0,0,0,0,0,0,0,0,0,0,0,0,0,0,0
</data>
 </layer>
 <objectgroup id="4" name="Object Layer 0">
  <object id="64" name="Arena" x="224" y="224" width="96" height="64">
   <properties>
    <property name="Encounter" value="/server/mods/randomized"/>
    <property name="Launch Direction" value="Down"/>
    <property name="Launch Distance" type="float" value="2.5"/>
    <property name="Launch Elevation" type="float" value="1"/>
   </properties>
  </object>
 </objectgroup>
 <layer id="5" name="Layer 1" width="15" height="14" offsetx="0" offsety="-16">
  <data encoding="csv">
0,0,0,0,0,0,0,0,0,0,0,0,0,0,0,
0,0,0,0,0,0,0,0,0,0,0,0,0,0,0,
0,0,0,0,0,0,0,0,0,0,0,0,0,0,0,
0,0,0,0,0,0,0,0,0,0,0,0,0,0,0,
0,0,0,0,0,10,2147483660,2147483660,17,2147483660,2147483660,17,0,0,0,
0,0,0,0,0,11,2147483666,2147483666,16,2147483666,2147483666,16,0,0,0,
0,0,0,0,0,22,0,0,0,0,0,22,0,0,0,
0,0,0,0,0,29,0,0,0,0,0,29,0,0,0,
0,0,0,0,0,29,0,0,0,0,0,29,0,0,0,
0,0,0,0,0,28,0,0,0,0,0,28,0,0,0,
0,0,0,0,0,10,2147483660,17,2147483660,2147483660,2147483660,17,0,0,0,
0,0,0,0,0,11,2147483666,16,2147483666,2147483666,2147483666,16,0,0,0,
0,0,0,0,0,0,0,11,2147483666,16,0,0,0,0,0,
0,0,0,0,0,0,0,0,0,0,0,0,0,0,0
</data>
 </layer>
 <objectgroup id="6" name="Object Layer 1" offsetx="0" offsety="-16">
  <object id="57" x="264" y="368">
   <properties>
    <property name="Direction" value="Up Right"/>
   </properties>
   <point/>
  </object>
  <object id="59" type="Script Entry: Collision" x="223" y="384" width="98" height="33">
   <properties>
    <property name="On Enter" type="object" value="61"/>
   </properties>
  </object>
  <object id="60" type="Script Node: Transfer To Area" x="272" y="464">
   <properties>
    <property name="Area" value="default"/>
    <property name="Target" type="int" value="211"/>
   </properties>
   <point/>
  </object>
  <object id="61" type="Script Node: Area Transition" x="272" y="440">
   <properties>
    <property name="Area" value="default"/>
    <property name="Fade" type="color" value="#ff000000"/>
    <property name="Next" type="object" value="60"/>
   </properties>
   <point/>
  </object>
 </objectgroup>
</map>
